assets/images/svg/money.svg

<svg width="16" height="12" viewBox="0 0 16 12" fill="none" xmlns="http://www.w3.org/2000/svg">
<path d="M8.15835 4.06469C8.15835 4.19337 8.21363 4.3829 8.69156 4.5422C8.89455 4.60986 9.51226 4.81576 9.51226 5.41859C9.51226 5.83536 9.22333 6.18573 8.83532 6.28042V6.37048C8.83532 6.4866 8.7412 6.5807 8.6251 6.5807C8.509 6.5807 8.41488 6.4866 8.41488 6.37048V6.28042C8.02684 6.18573 7.73791 5.83536 7.73791 5.41859C7.73791 5.30247 7.83203 5.20837 7.94813 5.20837C8.06423 5.20837 8.15835 5.30247 8.15835 5.41859C8.15835 5.67599 8.36773 5.88534 8.6251 5.88534C8.88247 5.88534 9.09182 5.67596 9.09182 5.41859C9.09182 5.27035 9.02847 5.09768 8.55861 4.94108C8.01403 4.75954 7.73791 4.46469 7.73791 4.06469C7.73791 3.64794 8.02684 3.29758 8.41488 3.20289V3.11283C8.41488 2.99671 8.509 2.90261 8.6251 2.90261C8.7412 2.90261 8.83532 2.99671 8.83532 3.11283V3.20289C9.22333 3.29758 9.51226 3.64794 9.51226 4.06469C9.51226 4.18081 9.41814 4.27491 9.30204 4.27491C9.18594 4.27491 9.09182 4.18081 9.09182 4.06469C9.09182 3.80732 8.88244 3.59797 8.6251 3.59797C8.36776 3.59797 8.15835 3.80732 8.15835 4.06469ZM15.9498 1.07509V8.40819C15.9498 8.52432 15.8557 8.61841 15.7396 8.61841H15.5285V9.82096C15.5285 9.88033 15.5034 9.93695 15.4594 9.9768C15.4206 10.012 15.3702 10.0312 15.3183 10.0312C15.3114 10.0312 15.3045 10.0308 15.2975 10.0301L14.6861 9.96943V11.2924C14.6861 11.356 14.6573 11.4161 14.6079 11.456C14.5702 11.4864 14.5235 11.5026 14.4758 11.5026C14.4611 11.5026 14.4462 11.5011 14.4315 11.4979L1.04744 8.61421C1.04708 8.61412 1.04674 8.61407 1.04637 8.61398L1.04511 8.6137C1.04195 8.61303 1.03892 8.61208 1.03581 8.61127C1.03342 8.61065 1.03099 8.61011 1.02863 8.60941C1.02574 8.60854 1.02294 8.60748 1.02008 8.6065C1.01905 8.60613 1.01798 8.60577 1.01694 8.60538C1.01484 8.60462 1.01271 8.60398 1.01064 8.60314C1.01013 8.60294 1.00966 8.60272 1.00915 8.60252C1.0066 8.60145 1.00411 8.60022 1.00161 8.59907C0.998976 8.59787 0.996314 8.59677 0.993735 8.59546C0.99309 8.59512 0.992474 8.59473 0.991829 8.59436C0.991745 8.59433 0.991661 8.59428 0.991549 8.59422C0.989166 8.59296 0.986868 8.59162 0.984541 8.59027C0.982215 8.58892 0.97986 8.58769 0.977618 8.58626C0.976553 8.58559 0.975544 8.58483 0.974479 8.58413C0.972433 8.58281 0.970442 8.58138 0.968452 8.58001C0.966462 8.57861 0.964416 8.57724 0.962482 8.57575C0.961137 8.57474 0.959847 8.57365 0.95853 8.57258C0.956764 8.57118 0.955026 8.56975 0.953316 8.5683C0.951663 8.56687 0.949981 8.56546 0.948355 8.56401C0.946786 8.5626 0.9453 8.56109 0.943786 8.55963C0.942273 8.55818 0.940759 8.55678 0.939302 8.55529C0.937984 8.55392 0.936695 8.55254 0.935406 8.55117C0.933696 8.54932 0.932042 8.54739 0.930388 8.54545C0.929099 8.54397 0.927754 8.54256 0.92652 8.54105C0.925511 8.53982 0.924586 8.53853 0.923605 8.53727C0.921923 8.53511 0.920326 8.53289 0.918728 8.53068C0.917635 8.52914 0.91643 8.52771 0.915364 8.52614C0.914524 8.52488 0.913795 8.52356 0.912954 8.52227C0.91144 8.51994 0.910011 8.51759 0.908581 8.51518C0.907572 8.51347 0.906479 8.51179 0.905526 8.51002C0.904657 8.50842 0.903844 8.50683 0.903003 8.50523C0.90191 8.50315 0.900873 8.50105 0.899864 8.49892C0.898911 8.49696 0.897986 8.49497 0.897089 8.49298C0.896248 8.4911 0.895436 8.4892 0.894651 8.48729C0.893922 8.48552 0.893249 8.48376 0.892577 8.48196C0.891708 8.47964 0.890923 8.47731 0.890138 8.47496C0.889409 8.47283 0.88868 8.47072 0.888036 8.46854C0.887615 8.46714 0.887223 8.46574 0.88683 8.46433C0.886046 8.46156 0.885429 8.45873 0.884784 8.4559C0.884252 8.45363 0.883635 8.45138 0.883187 8.44909C0.88299 8.4481 0.882822 8.4471 0.882626 8.44611C0.881981 8.44255 0.881533 8.43891 0.881084 8.43527C0.880804 8.43314 0.880412 8.43106 0.880187 8.4289C0.880131 8.42837 0.880103 8.42787 0.880047 8.42736C0.879487 8.42106 0.87915 8.41467 0.87915 8.40819V1.07509C0.87915 0.958963 0.973273 0.864868 1.08937 0.864868H15.7396C15.8557 0.864868 15.9498 0.958963 15.9498 1.07509ZM13.5581 8.19797C13.6577 7.15693 14.4883 6.32627 15.5294 6.22671V3.25654C14.4883 3.15698 13.6577 2.32633 13.5581 1.28528H3.27085C3.17129 2.32635 2.34064 3.15701 1.29959 3.25654V6.22671C2.34064 6.32627 3.17129 7.15693 3.27085 8.19797H13.5581ZM2.8478 8.19797C2.75166 7.38904 2.10852 6.7459 1.29959 6.64976V8.19797H2.8478ZM2.8478 1.28531H1.29959V2.83352C2.10852 2.73735 2.75166 2.09424 2.8478 1.28531ZM15.5294 1.28531H13.9811C14.0773 2.09424 14.7204 2.73738 15.5294 2.83352V1.28531ZM14.2656 9.9277L4.7588 8.98375L14.2656 11.0321V9.9277H14.2656ZM15.1081 8.61841H5.33424L15.1081 9.58885V8.61841ZM15.5294 8.19797V6.64976C14.7204 6.7459 14.0773 7.38904 13.9811 8.19797H15.3178C15.318 8.19797 15.3181 8.19794 15.3183 8.19794C15.3185 8.19794 15.3187 8.19797 15.3188 8.19797H15.5294ZM10.611 3.09122C10.516 3.15802 10.4931 3.28914 10.5599 3.3841C10.8402 3.78288 10.9884 4.25229 10.9884 4.74163C10.9884 6.04474 9.92822 7.10493 8.6251 7.10493C7.32195 7.10493 6.26177 6.04474 6.26177 4.74163C6.26177 3.43851 7.32195 2.37832 8.6251 2.37832C9.11447 2.37832 9.58393 2.52651 9.98271 2.80689C10.0777 2.87374 10.2088 2.85087 10.2756 2.75585C10.3424 2.66089 10.3195 2.52976 10.2245 2.46297C9.75458 2.13256 9.2015 1.95788 8.6251 1.95788C7.09012 1.95788 5.84132 3.20668 5.84132 4.74163C5.84132 6.27658 7.09012 7.52537 8.6251 7.52537C10.1601 7.52537 11.4088 6.27658 11.4088 4.74163C11.4088 4.16526 11.2342 3.61223 10.9038 3.14229C10.8371 3.04733 10.706 3.02451 10.611 3.09122Z" fill="#FFB800"/>
</svg>

<svg width="16" height="12" fill="none" xmlns="http://www.w3.org/2000/svg"><path d="M8.158 4.065c0 .128.056.318.534.477.203.068.82.274.82.877a.889.889 0 01-.677.861v.09a.21.21 0 11-.42 0v-.09a.889.889 0 01-.677-.861.21.21 0 11.42 0 .467.467 0 00.934 0c0-.149-.064-.321-.533-.478-.545-.181-.821-.476-.821-.876 0-.417.289-.767.677-.862v-.09a.21.21 0 11.42 0v.09a.889.889 0 01.677.862.21.21 0 11-.42 0 .467.467 0 00-.934 0zm7.792-2.99v7.333a.21.21 0 01-.21.21h-.212v1.203a.21.21 0 01-.23.21l-.612-.062v1.323a.21.21 0 01-.255.206L1.047 8.614h-.002l-.01-.003c-.002 0-.004 0-.006-.002l-.009-.002-.003-.002-.006-.002h-.002l-.007-.004-.008-.004H.992L.985 8.59l-.007-.004-.004-.002-.006-.004-.006-.004-.003-.003a.204.204 0 01-.006-.005l-.005-.004-.004-.004-.005-.005-.004-.004a.19.19 0 01-.005-.006l-.003-.004-.003-.004-.005-.006-.004-.005-.002-.004a.204.204 0 01-.004-.007C.908 8.513.906 8.512.906 8.51l-.003-.005a.17.17 0 01-.013-.03l-.002-.006-.001-.005-.002-.008-.002-.007v-.003l-.002-.01v-.007L.88 8.427V1.075a.21.21 0 01.21-.21h14.65a.21.21 0 01.21.21zm-2.392 7.123c.1-1.041.93-1.872 1.971-1.971v-2.97a2.195 2.195 0 01-1.97-1.972H3.27A2.195 2.195 0 011.3 3.257v2.97c1.04.1 1.871.93 1.97 1.971h10.288zm-10.71 0A1.774 1.774 0 001.3 6.65v1.548h1.548zm0-6.913H1.3v1.549a1.774 1.774 0 001.548-1.549zm12.681 0h-1.548c.096.81.74 1.452 1.548 1.549V1.285zm-1.263 8.643l-9.507-.944 9.507 2.048V9.928zm.842-1.31H5.334l9.774.97v-.97zm.421-.42V6.65a1.774 1.774 0 00-1.548 1.548h1.548zm-4.918-5.107a.21.21 0 00-.051.293 2.366 2.366 0 01-1.935 3.72 2.366 2.366 0 01-2.363-2.362 2.366 2.366 0 013.72-1.935.21.21 0 10.243-.344 2.787 2.787 0 00-4.383 2.279 2.787 2.787 0 002.783 2.783 2.787 2.787 0 002.279-4.383.21.21 0 00-.293-.05z" fill="#FFB800"/></svg>
